**harm	**harte	**timestamp	**phrase	**leadinstrument	**kern
*M4/4	*M4/4	*	*	*	*
*d:	*d:	*	*	*	*d:
1r;	N	0	.	r	1r;
=1	=1	=1	=1	=1	=1
*>A_intro	*>A_intro	*>A_intro	*>A_intro	*>A_intro	*>A_intro
2i7	D:min7	0.279	newline	guitar	2D 2f 2a 2cc#
2v7	A:min7	1.938	.	guitar	2A 2cc 2ee 2gg
=2	=2	=2	=2	=2	=2
2iv7	G:min7	3.598	.	guitar	2G 2b- 2dd 2ff
2-VII	C:sus4(b7,9)	5.258	.	guitar	2C 2e 2g
=3	=3	=3	=3	=3	=3
2i7	D:min7	6.918	.	guitar	2D 2f 2a 2cc#
2v7	A:min7	8.577	.	guitar	2A 2cc 2ee 2gg
=4	=4	=4	=4	=4	=4
2iv7	G:min7	10.237	.	guitar	2G 2b- 2dd 2ff
2-VII	C:sus4(b7,9)	11.897	.	guitar	2C 2e 2g
=5	=5	=5	=5	=5	=5
*>B_verse	*>B_verse	*>B_verse	*>B_verse	*>B_verse	*>B_verse
1i7	D:min7	13.556	newline	voice	1D 1f 1a 1cc#
=6	=6	=6	=6	=6	=6
1vb	A:min/b3	16.797	.	voice	1a 1C 1ee
=7	=7	=7	=7	=7	=7
1-VI7	B-:maj9	20.037	.	voice	1B-- 1dd- 1ff- 1aa
=8	=8	=8	=8	=8	=8
2v	A:sus4(b7,9)	23.277	.	voice	2A 2cc 2ee
2V	A:maj	24.897	.	voice	2A 2cc# 2ee
=9	=9	=9	=9	=9	=9
1i7	D:min7	26.517	newline	voice	1D 1f 1a 1cc#
=10	=10	=10	=10	=10	=10
1vb	A:min/b3	29.743	.	voice	1a 1C 1ee
=11	=11	=11	=11	=11	=11
1-VI7	B-:maj9	32.97	.	voice	1B-- 1dd- 1ff- 1aa
=12	=12	=12	=12	=12	=12
2v	A:sus4(b7,9)	36.196	.	voice	2A 2cc 2ee
2V	A:maj	37.809	.	voice	2A 2cc# 2ee
=13	=13	=13	=13	=13	=13
*>C_prechorus	*>C_prechorus	*>C_prechorus	*>C_prechorus	*>C_prechorus	*>C_prechorus
2-VI	B-:maj	39.422	newline	voice	2B-- 2dd- 2ff-
2-VII	C:maj	41.037	.	voice	2C 2e 2g
=14	=14	=14	=14	=14	=14
2V7b	A:7(b9)/3	42.652	.	voice	2a 2C# 2ee 2gg
2i7	D:min7	44.266	.	voice	2D 2f 2a 2cc#
=15	=15	=15	=15	=15	=15
2-VI	B-:maj	45.881	.	voice	2B-- 2dd- 2ff-
2-VII	C:maj	47.496	.	voice	2C 2e 2g
=16	=16	=16	=16	=16	=16
2-IIm7	E-:7	49.111	.	voice	2E- 2g 2b- 2dd
2i7	D:min7	50.726	.	voice	2D 2f 2a 2cc#
=17	=17	=17	=17	=17	=17
1iv7	G:min7	52.341	newline	voice	1G 1b- 1dd 1ff
=18	=18	=18	=18	=18	=18
1r	N	55.57	.	voice	1r
=19	=19	=19	=19	=19	=19
*>D_chorus	*>D_chorus	*>D_chorus	*>D_chorus	*>D_chorus	*>D_chorus
2i7	D:min7	58.8	newline	voice	2D 2f 2a 2cc#
2v7	A:min7	60.403	.	voice	2A 2cc 2ee 2gg
=20	=20	=20	=20	=20	=20
2iv7	G:min7	62.006	.	voice	2G 2b- 2dd 2ff
4-VII	C:sus4(b7,9)	63.61	.	voice	4C 4e 4g
4VIIm7	C#:9	64.411	.	voice	4C# 4e# 4g# 4b-
=21	=21	=21	=21	=21	=21
2i7	D:min7	65.213	.	voice	2D 2f 2a 2cc#
2v7	A:min7	66.816	.	voice	2A 2cc 2ee 2gg
=22	=22	=22	=22	=22	=22
2iv7	G:min7	68.419	.	voice	2G 2b- 2dd 2ff
2-VII	C:sus4(b7,9)	70.022	.	voice	2C 2e 2g
=23	=23	=23	=23	=23	=23
*>B_verse	*>B_verse	*>B_verse	*>B_verse	*>B_verse	*>B_verse
1i7	D:min7	71.625	newline	voice	1D 1f 1a 1cc#
=24	=24	=24	=24	=24	=24
1vb	A:min/b3	74.819	.	voice	1a 1C 1ee
=25	=25	=25	=25	=25	=25
1-VI7	B-:maj9	78.012	.	voice	1B-- 1dd- 1ff- 1aa
=26	=26	=26	=26	=26	=26
2v	A:sus4(b7,9)	81.205	.	voice	2A 2cc 2ee
2V	A:maj	82.802	.	voice	2A 2cc# 2ee
=27	=27	=27	=27	=27	=27
1i7	D:min7	84.398	newline	voice	1D 1f 1a 1cc#
=28	=28	=28	=28	=28	=28
1vb	A:min/b3	87.575	.	voice	1a 1C 1ee
=29	=29	=29	=29	=29	=29
1-VI7	B-:maj9	90.752	.	voice	1B-- 1dd- 1ff- 1aa
=30	=30	=30	=30	=30	=30
2v	A:sus4(b7,9)	93.929	.	voice	2A 2cc 2ee
2V	A:maj	95.518	.	voice	2A 2cc# 2ee
=31	=31	=31	=31	=31	=31
*>C_prechorus	*>C_prechorus	*>C_prechorus	*>C_prechorus	*>C_prechorus	*>C_prechorus
2-VI	B-:maj	97.106	newline	voice	2B-- 2dd- 2ff-
2-VII	C:maj	98.704	.	voice	2C 2e 2g
=32	=32	=32	=32	=32	=32
2V7b	A:7(b9)/3	100.302	.	voice	2a 2C# 2ee 2gg
2i7	D:min7	101.9	.	voice	2D 2f 2a 2cc#
=33	=33	=33	=33	=33	=33
2-VI	B-:maj	103.498	.	voice	2B-- 2dd- 2ff-
2-VII	C:maj	105.095	.	voice	2C 2e 2g
=34	=34	=34	=34	=34	=34
2-IIm7	E-:7	106.693	.	voice	2E- 2g 2b- 2dd
2i7	D:min7	108.291	.	voice	2D 2f 2a 2cc#
=35	=35	=35	=35	=35	=35
1iv7	G:min7	109.889	newline	voice	1G 1b- 1dd 1ff
=36	=36	=36	=36	=36	=36
1r	N	113.093	.	voice	1r
=37	=37	=37	=37	=37	=37
*>D_chorus	*>D_chorus	*>D_chorus	*>D_chorus	*>D_chorus	*>D_chorus
2i7	D:min7	116.297	newline	voice	2D 2f 2a 2cc#
2v7	A:min7	117.874	.	voice	2A 2cc 2ee 2gg
=38	=38	=38	=38	=38	=38
2iv7	G:min7	119.452	.	voice	2G 2b- 2dd 2ff
4-VII	C:sus4(b7,9)	121.029	.	voice	4C 4e 4g
4VIIm7	C#:9	121.818	.	voice	4C# 4e# 4g# 4b-
=39	=39	=39	=39	=39	=39
2i7	D:min7	122.606	.	voice	2D 2f 2a 2cc#
2v7	A:min7	124.184	.	voice	2A 2cc 2ee 2gg
=40	=40	=40	=40	=40	=40
2iv7	G:min7	125.761	.	voice	2G 2b- 2dd 2ff
2-VII	C:sus4(b7,9)	127.339	.	voice	2C 2e 2g
=41	=41	=41	=41	=41	=41
2i7	D:min7	128.916	newline	voice	2D 2f 2a 2cc#
2v7	A:min7	130.489	.	voice	2A 2cc 2ee 2gg
=42	=42	=42	=42	=42	=42
2iv7	G:min7	132.063	.	voice	2G 2b- 2dd 2ff
4-VII	C:sus4(9)	133.636	.	voice	4C 4e 4g
4VIIm7	C#:9	134.423	.	voice	4C# 4e# 4g# 4b-
=43	=43	=43	=43	=43	=43
2i7	D:min7	135.21	.	voice	2D 2f 2a 2cc#
2v7	A:min7	136.783	.	voice	2A 2cc 2ee 2gg
=44	=44	=44	=44	=44	=44
2iv7	G:min7	138.357	.	voice	2G 2b- 2dd 2ff
2-VII	C:sus4(9)	139.93	.	voice	2C 2e 2g
=45	=45	=45	=45	=45	=45
*>E_bridge	*>E_bridge	*>E_bridge	*>E_bridge	*>E_bridge	*>E_bridge
2iv7	G:min7	141.503	newline	strings	2G 2b- 2dd 2ff
4-VII	C:maj	143.088	.	strings	4C 4e 4g
4i7	D:min9	143.88	.	strings	4D 4f 4a 4cc#
=46	=46	=46	=46	=46	=46
2-III	F:maj	144.672	.	strings	2F- 2a- 2cc-
4-VI	B-:maj	146.257	.	strings	4B-- 4dd- 4ff-
4viio	C#:dim	147.049	.	strings	4C# 4e 4g
=47	=47	=47	=47	=47	=47
*>D_chorus	*>D_chorus	*>D_chorus	*>D_chorus	*>D_chorus	*>D_chorus
2i7	D:min7	147.841	newline	voice	2D 2f 2a 2cc#
2v7	A:min7	149.415	.	voice	2A 2cc 2ee 2gg
=48	=48	=48	=48	=48	=48
2iv7	G:min7	150.988	.	voice	2G 2b- 2dd 2ff
4-VII	C:sus4(b7,9)	152.561	.	voice	4C 4e 4g
4VIIm7	C#:9	153.347	.	voice	4C# 4e# 4g# 4b-
=49	=49	=49	=49	=49	=49
2i7	D:min7	154.134	.	voice	2D 2f 2a 2cc#
2v7	A:min7	155.707	.	voice	2A 2cc 2ee 2gg
=50	=50	=50	=50	=50	=50
2iv7	G:min7	157.28	.	voice	2G 2b- 2dd 2ff
2-VII	C:sus4(b7,9)	158.853	.	voice	2C 2e 2g
=51	=51	=51	=51	=51	=51
2i7	D:min7	160.426	newline	voice	2D 2f 2a 2cc#
2v7	A:min7	161.986	.	voice	2A 2cc 2ee 2gg
=52	=52	=52	=52	=52	=52
2iv7	G:min7	163.546	.	voice	2G 2b- 2dd 2ff
4-VII	C:sus4(b7,9)	165.106	.	voice	4C 4e 4g
4VIIm7	C#:9	165.886	.	voice	4C# 4e# 4g# 4b-
=53	=53	=53	=53	=53	=53
2i7	D:min7	166.666	.	voice	2D 2f 2a 2cc#
2v7	A:min7	168.226	.	voice	2A 2cc 2ee 2gg
=54	=54	=54	=54	=54	=54
2iv7	G:min7	169.786	.	voice	2G 2b- 2dd 2ff
2-VII	C:sus4(b7,9)	171.346	.	voice	2C 2e 2g
=55	=55	=55	=55	=55	=55
*>_fadeout	*>_fadeout	*>_fadeout	*>_fadeout	*>_fadeout	*>_fadeout
2i7	D:min7	172.906	newline	voice	2D 2f 2a 2cc#
2v7	A:min7	174.487	.	voice	2A 2cc 2ee 2gg
=56	=56	=56	=56	=56	=56
2iv7	G:min7	176.068	.	voice	2G 2b- 2dd 2ff
4-VII	C:sus4(b7,9)	177.649	.	voice	4C 4e 4g
4VIIm7	C#:9	178.44	.	voice	4C# 4e# 4g# 4b-
=57	=57	=57	=57	=57	=57
2i7	D:min7	179.23	.	voice	2D 2f 2a 2cc#
2v7	A:min7	180.812	.	voice	2A 2cc 2ee 2gg
1r;	N	182.393	.	r	1r;
1r;	N	186.175	.	r	1r;
*-	*-	*-	*-	*-	*-
!!!OTL: Sara Smile
!!!COC: Daryl Hall & John Oates
!!!BillboardChartDate: 1976/04/17
!!!BillboardPeak: 4
!!!BillboardWeeksOnChart: 28
!!!SampleTargetRank: 31
!!!SampleActualRank: 29
!!!SampleID#: 0708
!!!RDF**harmony: **recip + pitch class of root + harmonic quality
!!!RDF**harte: Chris Harte's syntax, used by MIREX
!!!RDF**phrase: newline = linebreak in original McGill transcription
!!!RDF**timestamp: McGill audio timestamp in seconds
!!!RDF**leadinstrument: original McGill primary instrumentation annotation
!!!RDT: 2017/01/12/
!!!ENC: Nathaniel Condit-Schultz
!!!EST: Awating manual error checking and editing.
